icons/sushi-15.svg

<?xml version="1.0" encoding="UTF-8" standalone="no"?>
<!-- Created with Inkscape (http://www.inkscape.org/) -->

<svg
   xmlns:dc="http://purl.org/dc/elements/1.1/"
   xmlns:cc="http://creativecommons.org/ns#"
   xmlns:rdf="http://www.w3.org/1999/02/22-rdf-syntax-ns#"
   xmlns:svg="http://www.w3.org/2000/svg"
   xmlns="http://www.w3.org/2000/svg"
   xmlns:sodipodi="http://sodipodi.sourceforge.net/DTD/sodipodi-0.dtd"
   xmlns:inkscape="http://www.inkscape.org/namespaces/inkscape"
   version="1.1"
   width="15"
   height="15"
   id="svg4619"
   inkscape:version="0.91 r13725"
   sodipodi:docname="sushi-15.svg"
   viewBox="0 0 15 15">
  <sodipodi:namedview
     pagecolor="#ffffff"
     bordercolor="#666666"
     borderopacity="1"
     objecttolerance="10"
     gridtolerance="10"
     guidetolerance="10"
     inkscape:pageopacity="0"
     inkscape:pageshadow="2"
     inkscape:window-width="1570"
     inkscape:window-height="998"
     id="namedview3359"
     inkscape:document-units="px"
     showgrid="true"
     inkscape:zoom="64"
     inkscape:cx="8.1854173"
     inkscape:cy="6.8631852"
     inkscape:current-layer="svg4619"
     inkscape:snap-bbox="true"
     inkscape:bbox-paths="true"
     inkscape:bbox-nodes="true"
     inkscape:snap-bbox-edge-midpoints="true"
     inkscape:snap-bbox-midpoints="false"
     inkscape:object-paths="true"
     inkscape:object-nodes="true"
     inkscape:snap-intersection-paths="true"
     inkscape:snap-smooth-nodes="true"
     inkscape:window-x="216"
     inkscape:window-y="0"
     inkscape:window-maximized="0"
     inkscape:snap-object-midpoints="false"
     inkscape:snap-center="true"
     inkscape:snap-nodes="true"
     showguides="true"
     inkscape:guide-bbox="true"
     showborder="true">
    <inkscape:grid
       type="xygrid"
       id="grid3333"
       spacingx="0.5"
       spacingy="0.5"
       color="#ff0000"
       opacity="0.1254902"
       empspacing="2" />
    <sodipodi:guide
       position="0,12.5"
       orientation="1,0"
       id="guide4850" />
    <sodipodi:guide
       position="4.5,15"
       orientation="0,1"
       id="guide4852" />
    <sodipodi:guide
       position="15,10.5"
       orientation="1,0"
       id="guide4854" />
    <sodipodi:guide
       position="6.5,0"
       orientation="0,1"
       id="guide4856" />
  </sodipodi:namedview>
  <defs
     id="defs4621" />
  <metadata
     id="metadata4624">
    <rdf:RDF>
      <cc:Work
         rdf:about="">
        <dc:format>image/svg+xml</dc:format>
        <dc:type
           rdf:resource="http://purl.org/dc/dcmitype/StillImage" />
        <dc:title></dc:title>
      </cc:Work>
    </rdf:RDF>
  </metadata>
  <path
     style="color:#000000;font-style:normal;font-variant:normal;font-weight:normal;font-stretch:normal;font-size:medium;line-height:normal;font-family:sans-serif;text-indent:0;text-align:start;text-decoration:none;text-decoration-line:none;text-decoration-style:solid;text-decoration-color:#000000;letter-spacing:normal;word-spacing:normal;text-transform:none;direction:ltr;block-progression:tb;writing-mode:lr-tb;baseline-shift:baseline;text-anchor:start;white-space:normal;clip-rule:nonzero;display:inline;overflow:visible;visibility:visible;opacity:1;isolation:auto;mix-blend-mode:normal;color-interpolation:sRGB;color-interpolation-filters:linearRGB;solid-color:#000000;solid-opacity:1;fill:#000000;fill-opacity:1;fill-rule:nonzero;stroke:none;stroke-width:1.5;stroke-linecap:round;stroke-linejoin:round;stroke-miterlimit:4;stroke-dasharray:none;stroke-dashoffset:0;stroke-opacity:1;marker:none;color-rendering:auto;image-rendering:auto;shape-rendering:auto;text-rendering:auto;enable-background:accumulate"
     d="M 5.5 3 A 0.50005 0.50005 0 0 0 5 3.5 L 2.75 3.5 C 1.2265 3.5 0 4.7265 0 6.25 C 0 7.0773959 0.36874688 7.8091906 0.94335938 8.3125 C 0.38025084 8.6674741 0 9.2893385 0 10 C 0 11.099351 0.90064863 12 2 12 L 5.5 12 L 7.5 12 L 10 12 C 11.099351 12 12 11.099351 12 10 C 12 9.5117238 11.813728 9.0706359 11.519531 8.7226562 L 13.697266 9.6855469 A 0.750075 0.750075 0 1 0 14.302734 8.3144531 L 12.492188 7.5117188 L 14.123047 7.2402344 A 0.750075 0.750075 0 0 0 14.003906 5.7480469 A 0.750075 0.750075 0 0 0 13.876953 5.7597656 L 11.746094 6.1152344 C 11.259515 4.9520545 10.038676 3.783742 8 3.5488281 L 8 3.5 A 0.50005 0.50005 0 0 0 7.5 3 L 5.5 3 z M 6 4 L 7 4 L 7 9 L 7 11 L 6 11 L 6 9 L 6 4 z M 9.5 8 C 9.7590216 8 9.9638317 8.1974174 9.9902344 8.4492188 L 10.066406 8.3164062 C 10.204906 8.0765172 10.510111 7.9962656 10.75 8.1347656 C 10.989889 8.2732656 11.070141 8.5765174 10.931641 8.8164062 L 10.673828 9.2636719 C 10.872726 9.4450079 11 9.7020914 11 10 C 11 10.562649 10.562649 11 10 11 L 8 11 L 8 9 L 9 9 L 9 8.5 C 9 8.223 9.223 8 9.5 8 z M 2.4394531 8.0703125 C 2.6328239 8.0460843 2.8297185 8.1364897 2.9335938 8.3164062 L 3.1347656 8.6640625 C 3.2260282 8.5647271 3.3538497 8.5 3.5 8.5 C 3.777 8.5 4 8.723 4 9 L 5 9 L 5 11 L 2 11 C 1.4373514 11 1 10.562649 1 10 C 1 9.4373514 1.4373514 9 2 9 L 2.1738281 9 L 2.0683594 8.8164062 C 1.9298594 8.5765172 2.010111 8.2732656 2.25 8.1347656 C 2.3099723 8.1001406 2.3749962 8.0783886 2.4394531 8.0703125 z "
     id="path4999" />
</svg>

<?xml version="1.0" encoding="utf-8"?>
<!-- Generator: Adobe Illustrator 19.2.1, SVG Export Plug-In . SVG Version: 6.00 Build 0)  -->
<!DOCTYPE svg PUBLIC "-//W3C//DTD SVG 1.1//EN" "http://www.w3.org/Graphics/SVG/1.1/DTD/svg11.dtd">
<svg version="1.1"
	 id="svg4619" inkscape:version="0.91 r13725" sodipodi:docname="sushi-15.svg" xmlns:cc="http://creativecommons.org/ns#" xmlns:dc="http://purl.org/dc/elements/1.1/" xmlns:inkscape="http://www.inkscape.org/namespaces/inkscape" xmlns:rdf="http://www.w3.org/1999/02/22-rdf-syntax-ns#" xmlns:sodipodi="http://sodipodi.sourceforge.net/DTD/sodipodi-0.dtd" xmlns:svg="http://www.w3.org/2000/svg"
	 xmlns="http://www.w3.org/2000/svg" xmlns:xlink="http://www.w3.org/1999/xlink" x="0px" y="0px" width="15px" height="15px"
	 viewBox="0 0 15 15" style="enable-background:new 0 0 15 15;" xml:space="preserve">
<path id="path4999" d="M5.5,3C5.2239,3,5,3.2239,5,3.5H2.75C1.2265,3.5,0,4.7265,0,6.25c0,0.8274,0.3687,1.5592,0.9434,2.0625
	C0.3803,8.6675,0,9.2893,0,10c0,1.0994,0.9006,2,2,2h3.5h2H10c1.0994,0,2-0.9006,2-2c0-0.4883-0.1863-0.9294-0.4805-1.2773
	l2.1777,0.9629c0.3716,0.1831,0.8213,0.0303,1.0044-0.3413c0.1831-0.3716,0.0303-0.8213-0.3413-1.0044
	c-0.0188-0.0093-0.038-0.0178-0.0576-0.0254l-1.8105-0.8027l1.6309-0.2715c0.4099-0.0599,0.6936-0.4408,0.6337-0.8507
	c-0.0544-0.3724-0.3765-0.6469-0.7528-0.6415c-0.0426,0.0003-0.085,0.0042-0.127,0.0117l-2.1309,0.3555
	C11.2595,4.9521,10.0387,3.7837,8,3.5488V3.5C8,3.2239,7.7761,3,7.5,3H5.5z M6,4h1v5v2H6V9V4z M9.5,8
	c0.259,0,0.4638,0.1974,0.4902,0.4492l0.0762-0.1328c0.1385-0.2399,0.4437-0.3201,0.6836-0.1816s0.3201,0.4418,0.1816,0.6816
	l-0.2578,0.4473C10.8727,9.445,11,9.7021,11,10c0,0.5626-0.4374,1-1,1H8V9h1V8.5C9,8.223,9.223,8,9.5,8z M2.4395,8.0703
	c0.1934-0.0242,0.3903,0.0662,0.4941,0.2461l0.2012,0.3477C3.226,8.5647,3.3538,8.5,3.5,8.5C3.777,8.5,4,8.723,4,9h1v2H2
	c-0.5626,0-1-0.4374-1-1s0.4374-1,1-1h0.1738L2.0684,8.8164C1.9299,8.5765,2.0101,8.2733,2.25,8.1348
	C2.31,8.1001,2.375,8.0784,2.4395,8.0703z"/>
</svg>
